images/portal/4854.svg

<?xml version="1.0" standalone="no"?><!DOCTYPE svg PUBLIC "-//W3C//DTD SVG 1.1//EN" "http://www.w3.org/Graphics/SVG/1.1/DTD/svg11.dtd"><svg xmlns:xlink="http://www.w3.org/1999/xlink" version="1.1" class="highcharts-root" style="font-family:Arial;font-size:12px;" xmlns="http://www.w3.org/2000/svg" width="485" height="415"><desc>Created with Highcharts 5.0.7</desc><defs><clipPath id="highcharts-oalw11e-1"><rect x="0" y="0" width="262" height="280" fill="none"></rect></clipPath></defs><rect fill="#fbfbfb" class="highcharts-background" x="0" y="0" width="485" height="415" rx="0" ry="0"></rect><rect fill="none" class="highcharts-plot-background" x="53" y="70" width="262" height="280"></rect><g class="highcharts-grid highcharts-xaxis-grid "><path fill="none" class="highcharts-grid-line" d="M 104.5 70 L 104.5 350" opacity="1"></path><path fill="none" class="highcharts-grid-line" d="M 157.5 70 L 157.5 350" opacity="1"></path><path fill="none" class="highcharts-grid-line" d="M 209.5 70 L 209.5 350" opacity="1"></path><path fill="none" class="highcharts-grid-line" d="M 262.5 70 L 262.5 350" opacity="1"></path><path fill="none" class="highcharts-grid-line" d="M 314.5 70 L 314.5 350" opacity="1"></path><path fill="none" class="highcharts-grid-line" d="M 52.5 70 L 52.5 350" opacity="1"></path></g><g class="highcharts-grid highcharts-yaxis-grid "><path fill="none" stroke="#e6e6e6" stroke-width="1" class="highcharts-grid-line" d="M 53 350.5 L 315 350.5" opacity="1"></path><path fill="none" stroke="#e6e6e6" stroke-width="1" class="highcharts-grid-line" d="M 53 322.5 L 315 322.5" opacity="1"></path><path fill="none" stroke="#e6e6e6" stroke-width="1" class="highcharts-grid-line" d="M 53 294.5 L 315 294.5" opacity="1"></path><path fill="none" stroke="#e6e6e6" stroke-width="1" class="highcharts-grid-line" d="M 53 266.5 L 315 266.5" opacity="1"></path><path fill="none" stroke="#e6e6e6" stroke-width="1" class="highcharts-grid-line" d="M 53 238.5 L 315 238.5" opacity="1"></path><path fill="none" stroke="#e6e6e6" stroke-width="1" class="highcharts-grid-line" d="M 53 210.5 L 315 210.5" opacity="1"></path><path fill="none" stroke="#e6e6e6" stroke-width="1" class="highcharts-grid-line" d="M 53 182.5 L 315 182.5" opacity="1"></path><path fill="none" stroke="#e6e6e6" stroke-width="1" class="highcharts-grid-line" d="M 53 154.5 L 315 154.5" opacity="1"></path><path fill="none" stroke="#e6e6e6" stroke-width="1" class="highcharts-grid-line" d="M 53 126.5 L 315 126.5" opacity="1"></path><path fill="none" stroke="#e6e6e6" stroke-width="1" class="highcharts-grid-line" d="M 53 98.5 L 315 98.5" opacity="1"></path><path fill="none" stroke="#e6e6e6" stroke-width="1" class="highcharts-grid-line" d="M 53 69.5 L 315 69.5" opacity="1"></path></g><rect fill="none" class="highcharts-plot-border" x="53" y="70" width="262" height="280"></rect><g class="highcharts-axis highcharts-xaxis "><path fill="none" class="highcharts-tick" stroke="#FFFFFF" stroke-width="1" d="M 104.5 350 L 104.5 360" opacity="1"></path><path fill="none" class="highcharts-tick" stroke="#FFFFFF" stroke-width="1" d="M 157.5 350 L 157.5 360" opacity="1"></path><path fill="none" class="highcharts-tick" stroke="#FFFFFF" stroke-width="1" d="M 209.5 350 L 209.5 360" opacity="1"></path><path fill="none" class="highcharts-tick" stroke="#FFFFFF" stroke-width="1" d="M 262.5 350 L 262.5 360" opacity="1"></path><path fill="none" class="highcharts-tick" stroke="#FFFFFF" stroke-width="1" d="M 315.5 350 L 315.5 360" opacity="1"></path><path fill="none" class="highcharts-tick" stroke="#FFFFFF" stroke-width="1" d="M 52.5 350 L 52.5 360" opacity="1"></path><path fill="none" class="highcharts-axis-line" stroke="#ccd6eb" stroke-width="1" d="M 53 350.5 L 315 350.5"></path></g><g class="highcharts-axis highcharts-yaxis "><path fill="none" class="highcharts-axis-line" d="M 53 70 L 53 350"></path></g><g class="highcharts-series-group"><g class="highcharts-series highcharts-series-0 highcharts-column-series highcharts-color-undefined highcharts-tracker" transform="translate(53,70) scale(1 1)" clip-path="url(#highcharts-oalw11e-1)"><rect x="13.5" y="186.5" width="26" height="94" fill="#256370" class="highcharts-point" stroke="#ffffff" stroke-width="1"></rect><rect x="65.5" y="184.5" width="26" height="96" fill="#256370" class="highcharts-point" stroke="#ffffff" stroke-width="1"></rect><rect x="117.5" y="197.5" width="26" height="83" fill="#256370" class="highcharts-point" stroke="#ffffff" stroke-width="1"></rect><rect x="170.5" y="199.5" width="26" height="81" fill="#256370" class="highcharts-point" stroke="#ffffff" stroke-width="1"></rect><rect x="222.5" y="211.5" width="26" height="69" fill="#256370" class="highcharts-point" stroke="#ffffff" stroke-width="1"></rect></g><g class="highcharts-markers highcharts-series-0 highcharts-column-series highcharts-color-undefined " transform="translate(53,70) scale(1 1)" clip-path="none"></g><g class="highcharts-series highcharts-series-1 highcharts-column-series highcharts-color-undefined highcharts-tracker" transform="translate(53,70) scale(1 1)" clip-path="url(#highcharts-oalw11e-1)"><rect x="13.5" y="84.5" width="26" height="102" fill="#71A3B5" class="highcharts-point" stroke="#ffffff" stroke-width="1"></rect><rect x="65.5" y="85.5" width="26" height="99" fill="#71A3B5" class="highcharts-point" stroke="#ffffff" stroke-width="1"></rect><rect x="117.5" y="92.5" width="26" height="105" fill="#71A3B5" class="highcharts-point" stroke="#ffffff" stroke-width="1"></rect><rect x="170.5" y="102.5" width="26" height="97" fill="#71A3B5" class="highcharts-point" stroke="#ffffff" stroke-width="1"></rect><rect x="222.5" y="105.5" width="26" height="106" fill="#71A3B5" class="highcharts-point" stroke="#ffffff" stroke-width="1"></rect></g><g class="highcharts-markers highcharts-series-1 highcharts-column-series highcharts-color-undefined " transform="translate(53,70) scale(1 1)" clip-path="none"></g><g class="highcharts-series highcharts-series-2 highcharts-column-series highcharts-color-undefined highcharts-tracker" transform="translate(53,70) scale(1 1)" clip-path="url(#highcharts-oalw11e-1)"><rect x="13.5" y="63.5" width="26" height="21" fill="#C8C8C8" class="highcharts-point" stroke="#ffffff" stroke-width="1"></rect><rect x="65.5" y="64.5" width="26" height="21" fill="#C8C8C8" class="highcharts-point" stroke="#ffffff" stroke-width="1"></rect><rect x="117.5" y="70.5" width="26" height="22" fill="#C8C8C8" class="highcharts-point" stroke="#ffffff" stroke-width="1"></rect><rect x="170.5" y="85.5" width="26" height="17" fill="#C8C8C8" class="highcharts-point" stroke="#ffffff" stroke-width="1"></rect><rect x="222.5" y="83.5" width="26" height="22" fill="#C8C8C8" class="highcharts-point" stroke="#ffffff" stroke-width="1"></rect></g><g class="highcharts-markers highcharts-series-2 highcharts-column-series highcharts-color-undefined " transform="translate(53,70) scale(1 1)" clip-path="none"></g><g class="highcharts-series highcharts-series-3 highcharts-column-series highcharts-color-undefined highcharts-tracker" transform="translate(53,70) scale(1 1)" clip-path="url(#highcharts-oalw11e-1)"><rect x="13.5" y="16.5" width="26" height="47" fill="#FFBB58" class="highcharts-point" stroke="#ffffff" stroke-width="1"></rect><rect x="65.5" y="17.5" width="26" height="47" fill="#FFBB58" class="highcharts-point" stroke="#ffffff" stroke-width="1"></rect><rect x="117.5" y="17.5" width="26" height="53" fill="#FFBB58" class="highcharts-point" stroke="#ffffff" stroke-width="1"></rect><rect x="170.5" y="20.5" width="26" height="65" fill="#FFBB58" class="highcharts-point" stroke="#ffffff" stroke-width="1"></rect><rect x="222.5" y="21.5" width="26" height="62" fill="#FFBB58" class="highcharts-point" stroke="#ffffff" stroke-width="1"></rect></g><g class="highcharts-markers highcharts-series-3 highcharts-column-series highcharts-color-undefined " transform="translate(53,70) scale(1 1)" clip-path="none"></g><g class="highcharts-series highcharts-series-4 highcharts-column-series highcharts-color-undefined highcharts-tracker" transform="translate(53,70) scale(1 1)" clip-path="url(#highcharts-oalw11e-1)"><rect x="13.5" y="-0.5" width="26" height="17" fill="#FF8028" class="highcharts-point" stroke="#ffffff" stroke-width="1"></rect><rect x="65.5" y="-0.5" width="26" height="18" fill="#FF8028" class="highcharts-point" stroke="#ffffff" stroke-width="1"></rect><rect x="117.5" y="-0.5" width="26" height="18" fill="#FF8028" class="highcharts-point" stroke="#ffffff" stroke-width="1"></rect><rect x="170.5" y="-0.5" width="26" height="21" fill="#FF8028" class="highcharts-point" stroke="#ffffff" stroke-width="1"></rect><rect x="222.5" y="-0.5" width="26" height="22" fill="#FF8028" class="highcharts-point" stroke="#ffffff" stroke-width="1"></rect></g><g class="highcharts-markers highcharts-series-4 highcharts-column-series highcharts-color-undefined " transform="translate(53,70) scale(1 1)" clip-path="none"></g></g><text x="10" text-anchor="start" class="highcharts-title" style="color:#000000;font-size:14px;font-weight:bold;fill:#000000;" y="21"><tspan>I.50.1.0012 Sicherhheitsgefühl nachts im Quartier</tspan></text><text x="10" text-anchor="start" class="highcharts-subtitle" style="color:#000000;font-size:12px;fill:#000000;" y="40"><tspan>«Wenn Sie in der Nacht alleine draussen sind in Ihrem Quartier oder Ihrer</tspan><tspan dy="15" x="10">Gemeinde, wie sicher fühlen Sie sich dann?»</tspan><title>«Wenn Sie in der Nacht alleine draussen sind in Ihrem Quartier oder Ihrer Gemeinde, wie sicher fühlen Sie sich dann?»</title></text><g class="highcharts-legend" transform="translate(327,145)"><rect fill="none" class="highcharts-legend-box" rx="0" ry="0" x="0" y="0" width="147" height="106" visibility="visible"></rect><g><g><g class="highcharts-legend-item highcharts-column-series highcharts-color-undefined highcharts-series-4" transform="translate(8,3)"><text x="21" style="color:#333333;font-size:12px;font-weight:normal;cursor:pointer;fill:#333333;" text-anchor="start" y="15"><tspan>Ganz unsicher</tspan></text><rect x="2" y="4" width="12" height="12" fill="#FF8028" class="highcharts-point"></rect></g><g class="highcharts-legend-item highcharts-column-series highcharts-color-undefined highcharts-series-3" transform="translate(8,22)"><text x="21" y="15" style="color:#333333;font-size:12px;font-weight:normal;cursor:pointer;fill:#333333;" text-anchor="start"><tspan>Eher unsicher</tspan></text><rect x="2" y="4" width="12" height="12" fill="#FFBB58" class="highcharts-point"></rect></g><g class="highcharts-legend-item highcharts-column-series highcharts-color-undefined highcharts-series-2" transform="translate(8,41)"><text x="21" y="15" style="color:#333333;font-size:12px;font-weight:normal;cursor:pointer;fill:#333333;" text-anchor="start"><tspan>Geht nachts nie raus</tspan></text><rect x="2" y="4" width="12" height="12" fill="#C8C8C8" class="highcharts-point"></rect></g><g class="highcharts-legend-item highcharts-column-series highcharts-color-undefined highcharts-series-1" transform="translate(8,60)"><text x="21" y="15" style="color:#333333;font-size:12px;font-weight:normal;cursor:pointer;fill:#333333;" text-anchor="start"><tspan>Eher sicher</tspan></text><rect x="2" y="4" width="12" height="12" fill="#71A3B5" class="highcharts-point"></rect></g><g class="highcharts-legend-item highcharts-column-series highcharts-color-undefined highcharts-series-0" transform="translate(8,79)"><text x="21" y="15" style="color:#333333;font-size:12px;font-weight:normal;cursor:pointer;fill:#333333;" text-anchor="start"><tspan>Sehr sicher</tspan></text><rect x="2" y="4" width="12" height="12" fill="#256370" class="highcharts-point"></rect></g></g></g></g><g class="highcharts-axis-labels highcharts-xaxis-labels "><text x="79.2" style="color:#000000;cursor:default;font-size:11px;fill:#000000;" text-anchor="middle" transform="translate(0,0)" y="369" opacity="1"><tspan>2003</tspan><tspan x="79.2" dy="14">(N=1497)</tspan></text><text x="131.60000000000002" style="color:#000000;cursor:default;font-size:11px;fill:#000000;" text-anchor="middle" transform="translate(0,0)" y="369" opacity="1"><tspan>2005</tspan><tspan x="131.60000000000002" dy="14">(N=1510)</tspan></text><text x="184" style="color:#000000;cursor:default;font-size:11px;fill:#000000;" text-anchor="middle" transform="translate(0,0)" y="369" opacity="1"><tspan>2007</tspan><tspan x="184" dy="14">(N=1509)</tspan></text><text x="236.40000000000003" style="color:#000000;cursor:default;font-size:11px;fill:#000000;" text-anchor="middle" transform="translate(0,0)" y="369" opacity="1"><tspan>2011</tspan><tspan x="236.40000000000003" dy="14">(N=1516)</tspan></text><text x="288.8" style="color:#000000;cursor:default;font-size:11px;fill:#000000;" text-anchor="middle" transform="translate(0,0)" y="369" opacity="1"><tspan>2015</tspan><tspan x="288.8" dy="14">(N=1506)</tspan></text></g><g class="highcharts-axis-labels highcharts-yaxis-labels "><text x="38" style="color:#000000;cursor:default;font-size:11px;fill:#000000;" text-anchor="end" transform="translate(0,0)" y="355" opacity="1"><tspan>0%</tspan></text><text x="38" style="color:#000000;cursor:default;font-size:11px;fill:#000000;" text-anchor="end" transform="translate(0,0)" y="327" opacity="1"><tspan>10%</tspan></text><text x="38" style="color:#000000;cursor:default;font-size:11px;fill:#000000;" text-anchor="end" transform="translate(0,0)" y="299" opacity="1"><tspan>20%</tspan></text><text x="38" style="color:#000000;cursor:default;font-size:11px;fill:#000000;" text-anchor="end" transform="translate(0,0)" y="271" opacity="1"><tspan>30%</tspan></text><text x="38" style="color:#000000;cursor:default;font-size:11px;fill:#000000;" text-anchor="end" transform="translate(0,0)" y="243" opacity="1"><tspan>40%</tspan></text><text x="38" style="color:#000000;cursor:default;font-size:11px;fill:#000000;" text-anchor="end" transform="translate(0,0)" y="215" opacity="1"><tspan>50%</tspan></text><text x="38" style="color:#000000;cursor:default;font-size:11px;fill:#000000;" text-anchor="end" transform="translate(0,0)" y="187" opacity="1"><tspan>60%</tspan></text><text x="38" style="color:#000000;cursor:default;font-size:11px;fill:#000000;" text-anchor="end" transform="translate(0,0)" y="159" opacity="1"><tspan>70%</tspan></text><text x="38" style="color:#000000;cursor:default;font-size:11px;fill:#000000;" text-anchor="end" transform="translate(0,0)" y="131" opacity="1"><tspan>80%</tspan></text><text x="38" style="color:#000000;cursor:default;font-size:11px;fill:#000000;" text-anchor="end" transform="translate(0,0)" y="103" opacity="1"><tspan>90%</tspan></text><text x="38" style="color:#000000;cursor:default;font-size:11px;fill:#000000;" text-anchor="end" transform="translate(0,0)" y="75" opacity="1"><tspan>100%</tspan></text></g><text x="10" class="highcharts-credits" text-anchor="start" style="cursor:default;color:#000000;font-size:10px;fill:#000000;" y="400"><tspan>Quelle: Statistisches Amt Basel-Stadt, kantonale Bevölkerungsbefragung: F9d</tspan></text></svg>

<svg class="highcharts-root" xmlns="http://www.w3.org/2000/svg" viewBox="0 0 485 415" font-family="Arial" font-size="12">
    <defs>
        <clipPath id="a">
            <path fill="none" d="M0 0h262v280H0z"/>
        </clipPath>
    </defs>
    <rect fill="#fbfbfb" class="highcharts-background" width="485" height="415" rx="0" ry="0"/>
    <path fill="none" class="highcharts-plot-background" d="M53 70h262v280H53z"/>
    <g class="highcharts-grid highcharts-xaxis-grid">
        <path fill="none" class="highcharts-grid-line" d="M104.5 70v280m53-280v280m52-280v280m53-280v280m52-280v280M52.5 70v280"/>
    </g>
    <g class="highcharts-grid highcharts-yaxis-grid">
        <path fill="none" stroke="#e6e6e6" class="highcharts-grid-line" d="M53 350.5h262m-262-28h262m-262-28h262m-262-28h262m-262-28h262m-262-28h262m-262-28h262m-262-28h262m-262-28h262m-262-28h262m-262-29h262"/>
    </g>
    <path fill="none" class="highcharts-plot-border" d="M53 70h262v280H53z"/>
    <g class="highcharts-axis highcharts-xaxis">
        <path fill="none" class="highcharts-tick" stroke="#FFF" d="M104.5 350v10m53-10v10m52-10v10m53-10v10m53-10v10m-263-10v10"/>
        <path fill="none" class="highcharts-axis-line" stroke="#ccd6eb" d="M53 350.5h262"/>
    </g>
    <g class="highcharts-axis highcharts-yaxis">
        <path fill="none" class="highcharts-axis-line" d="M53 70v280"/>
    </g>
    <g class="highcharts-series-group">
        <g class="highcharts-series highcharts-series-0 highcharts-column-series highcharts-color-undefined highcharts-tracker" transform="translate(53 70)" clip-path="url(#a)">
            <path fill="#256370" class="highcharts-point" stroke="#fff" d="M13.5 186.5h26v94h-26zm52-2h26v96h-26zm52 13h26v83h-26zm53 2h26v81h-26zm52 12h26v69h-26z"/>
        </g>
        <g class="highcharts-series highcharts-series-1 highcharts-column-series highcharts-color-undefined highcharts-tracker" transform="translate(53 70)" clip-path="url(#a)">
            <path fill="#71A3B5" class="highcharts-point" stroke="#fff" d="M13.5 84.5h26v102h-26zm52 1h26v99h-26zm52 7h26v105h-26zm53 10h26v97h-26zm52 3h26v106h-26z"/>
        </g>
        <g class="highcharts-series highcharts-series-2 highcharts-column-series highcharts-color-undefined highcharts-tracker" transform="translate(53 70)" clip-path="url(#a)">
            <path fill="#C8C8C8" class="highcharts-point" stroke="#fff" d="M13.5 63.5h26v21h-26zm52 1h26v21h-26zm52 6h26v22h-26zm53 15h26v17h-26zm52-2h26v22h-26z"/>
        </g>
        <g class="highcharts-series highcharts-series-3 highcharts-column-series highcharts-color-undefined highcharts-tracker" transform="translate(53 70)" clip-path="url(#a)">
            <path fill="#FFBB58" class="highcharts-point" stroke="#fff" d="M13.5 16.5h26v47h-26zm52 1h26v47h-26zm52 0h26v53h-26zm53 3h26v65h-26zm52 1h26v62h-26z"/>
        </g>
        <g class="highcharts-series highcharts-series-4 highcharts-column-series highcharts-color-undefined highcharts-tracker" transform="translate(53 70)" clip-path="url(#a)">
            <path fill="#FF8028" class="highcharts-point" stroke="#fff" d="M13.5-.5h26v17h-26zm52 0h26v18h-26zm52 0h26v18h-26zm53 0h26v21h-26zm52 0h26v22h-26z"/>
        </g>
    </g>
    <text x="10" class="highcharts-title" y="21" color="#000" font-size="14" font-weight="700">
        <tspan>I.50.1.0012 Sicherhheitsgefühl nachts im Quartier</tspan>
    </text>
    <text x="10" class="highcharts-subtitle" y="40" color="#000">
        <tspan>«Wenn Sie in der Nacht alleine draussen sind in Ihrem Quartier oder Ihrer</tspan><tspan dy="15" x="10">Gemeinde, wie sicher fühlen Sie sich dann?»</tspan><title>«Wenn Sie in der Nacht alleine draussen sind in Ihrem Quartier oder Ihrer Gemeinde, wie sicher fühlen Sie sich dann?»</title>
    </text>
    <g class="highcharts-legend" transform="translate(327 145)">
        <rect fill="none" class="highcharts-legend-box" rx="0" ry="0" width="147" height="106"/>
        <g class="highcharts-legend-item highcharts-column-series highcharts-color-undefined highcharts-series-4">
            <text x="21" y="15" color="#333" font-weight="400" cursor="pointer" fill="#333" transform="translate(8 3)">
                <tspan>Ganz unsicher</tspan>
            </text>
            <path fill="#FF8028" class="highcharts-point" d="M10 7h12v12H10z"/>
        </g>
        <g class="highcharts-legend-item highcharts-column-series highcharts-color-undefined highcharts-series-3">
            <text x="21" y="15" color="#333" font-weight="400" cursor="pointer" fill="#333" transform="translate(8 22)">
                <tspan>Eher unsicher</tspan>
            </text>
            <path fill="#FFBB58" class="highcharts-point" d="M10 26h12v12H10z"/>
        </g>
        <g class="highcharts-legend-item highcharts-column-series highcharts-color-undefined highcharts-series-2">
            <text x="21" y="15" color="#333" font-weight="400" cursor="pointer" fill="#333" transform="translate(8 41)">
                <tspan>Geht nachts nie raus</tspan>
            </text>
            <path fill="#C8C8C8" class="highcharts-point" d="M10 45h12v12H10z"/>
        </g>
        <g class="highcharts-legend-item highcharts-column-series highcharts-color-undefined highcharts-series-1">
            <text x="21" y="15" color="#333" font-weight="400" cursor="pointer" fill="#333" transform="translate(8 60)">
                <tspan>Eher sicher</tspan>
            </text>
            <path fill="#71A3B5" class="highcharts-point" d="M10 64h12v12H10z"/>
        </g>
        <g class="highcharts-legend-item highcharts-column-series highcharts-color-undefined highcharts-series-0">
            <text x="21" y="15" color="#333" font-weight="400" cursor="pointer" fill="#333" transform="translate(8 79)">
                <tspan>Sehr sicher</tspan>
            </text>
            <path fill="#256370" class="highcharts-point" d="M10 83h12v12H10z"/>
        </g>
    </g>
    <g class="highcharts-axis-labels highcharts-xaxis-labels" text-anchor="middle" color="#000" cursor="default" font-size="11">
        <text x="79.2" y="369">
            <tspan>2003</tspan><tspan x="79.2" dy="14">(N=1497)</tspan>
        </text>
        <text x="131.6" y="369">
            <tspan>2005</tspan><tspan x="131.6" dy="14">(N=1510)</tspan>
        </text>
        <text x="184" y="369">
            <tspan>2007</tspan><tspan x="184" dy="14">(N=1509)</tspan>
        </text>
        <text x="236.4" y="369">
            <tspan>2011</tspan><tspan x="236.4" dy="14">(N=1516)</tspan>
        </text>
        <text x="288.8" y="369">
            <tspan>2015</tspan><tspan x="288.8" dy="14">(N=1506)</tspan>
        </text>
    </g>
    <g class="highcharts-axis-labels highcharts-yaxis-labels" text-anchor="end" color="#000" cursor="default" font-size="11">
        <text x="38" y="355">
            <tspan>0%</tspan>
        </text>
        <text x="38" y="327">
            <tspan>10%</tspan>
        </text>
        <text x="38" y="299">
            <tspan>20%</tspan>
        </text>
        <text x="38" y="271">
            <tspan>30%</tspan>
        </text>
        <text x="38" y="243">
            <tspan>40%</tspan>
        </text>
        <text x="38" y="215">
            <tspan>50%</tspan>
        </text>
        <text x="38" y="187">
            <tspan>60%</tspan>
        </text>
        <text x="38" y="159">
            <tspan>70%</tspan>
        </text>
        <text x="38" y="131">
            <tspan>80%</tspan>
        </text>
        <text x="38" y="103">
            <tspan>90%</tspan>
        </text>
        <text x="38" y="75">
            <tspan>100%</tspan>
        </text>
    </g>
    <text x="10" class="highcharts-credits" y="400" cursor="default" color="#000" font-size="10">
        <tspan>Quelle: Statistisches Amt Basel-Stadt, kantonale Bevölkerungsbefragung: F9d</tspan>
    </text>
</svg>
